src/assets/metronic/worbby/global/img/icon-benefits4.svg

<?xml version="1.0" encoding="UTF-8"?>
<svg width="80px" height="80px" viewBox="0 0 80 80" version="1.1" xmlns="http://www.w3.org/2000/svg" xmlns:xlink="http://www.w3.org/1999/xlink">
    <!-- Generator: Sketch 42 (36781) - http://www.bohemiancoding.com/sketch -->
    <title>icon-benefits4</title>
    <desc>Created with Sketch.</desc>
    <defs>
        <linearGradient x1="0%" y1="49.9979293%" x2="99.9874969%" y2="49.9979293%" id="linearGradient-1">
            <stop stop-color="#FFB247" offset="0%"></stop>
            <stop stop-color="#FFCB33" offset="100%"></stop>
        </linearGradient>
    </defs>
    <g id="Desktop" stroke="none" stroke-width="1" fill="none" fill-rule="evenodd">
        <g id="Desktop-Home-Worbbior" transform="translate(-1065.000000, -1307.000000)">
            <g id="icon-benefits4" transform="translate(1065.000000, 1307.000000)">
                <circle id="Oval" fill="url(#linearGradient-1)" cx="47.6666667" cy="47.6666667" r="31.6666667"></circle>
                <path d="M30,45 C34.6639649,45 38.6499812,42.0973569 40.2501194,38 L19.7498806,38 C21.3500188,42.0973569 25.3360351,45 30,45 Z M30,0 C6.468,0 0,6.468 0,30 C0,53.532 6.384,60 30,60 C53.616,60 60,53.616 60,30 C60,6.384 53.532,0 30,0 Z M30,55.716 C8.856,55.716 4.284,51.144 4.284,30 C4.284,8.856 8.856,4.284 30,4.284 C51.144,4.284 55.716,8.856 55.716,30 C55.716,51.144 51.144,55.716 30,55.716 Z M19.284,26.494 C21.4504482,26.494 23.21,24.7344482 23.21,22.568 C23.21,20.4015518 21.4504482,18.642 19.284,18.642 C17.1175518,18.642 15.358,20.4015518 15.358,22.568 C15.358,24.7344482 17.1175518,26.494 19.284,26.494 Z M40.716,20.571 C37.8001793,20.571 35.432,21.466014 35.432,22.568 C35.432,23.669986 37.8001793,24.565 40.716,24.565 C43.6318207,24.565 46,23.669986 46,22.568 C46,21.466014 43.6318207,20.571 40.716,20.571 Z M45,34 C45,42.2842712 38.2842712,49 30,49 C21.7157288,49 15,42.2842712 15,34 L45,34 Z" id="Combined-Shape" fill="#1E2225" fill-rule="nonzero"></path>
            </g>
        </g>
    </g>
</svg>

<svg xmlns="http://www.w3.org/2000/svg" width="80" height="80"><defs><linearGradient id="a" x1="0%" x2="99.9875%" y1="49.9979%" y2="49.9979%"><stop stop-color="#FFB247" offset="0%"/><stop stop-color="#FFCB33" offset="100%"/></linearGradient></defs><g fill="none" fill-rule="evenodd"><circle cx="47.6667" cy="47.6667" r="31.6667" fill="url(#a)"/><path fill="#1E2225" fill-rule="nonzero" d="M30 45c4.664 0 8.65-2.9026 10.25-7h-20.5c1.6 4.0974 5.586 7 10.25 7zm0-45C6.468 0 0 6.468 0 30s6.384 30 30 30 30-6.384 30-30S53.532 0 30 0zm0 55.716C8.856 55.716 4.284 51.144 4.284 30 4.284 8.856 8.856 4.284 30 4.284c21.144 0 25.716 4.572 25.716 25.716 0 21.144-4.572 25.716-25.716 25.716zM19.284 26.494c2.1664 0 3.926-1.7596 3.926-3.926 0-2.1664-1.7596-3.926-3.926-3.926-2.1664 0-3.926 1.7596-3.926 3.926 0 2.1664 1.7596 3.926 3.926 3.926zm21.432-5.923c-2.9158 0-5.284.895-5.284 1.997s2.3682 1.997 5.284 1.997S46 23.67 46 22.568s-2.3682-1.997-5.284-1.997zM45 34c0 8.2843-6.7157 15-15 15s-15-6.7157-15-15h30z"/></g></svg>
